!!!!SEGMENT: pl-sa--481-a-viii-121--028_anonim--mazur.krn
!!!cenid: 18xx:399
!!!COM: Anonim
!!!COM-rismid: pe30004985
!!!CDT:
!!!CNT:
!!!OTL: Mazur
!!!PDT:
!!!AGN: Secular; Mazurka
!!!SMS-siglum: PL-SA
!!!SMS-shelfmark: 481/A VIII 121
!!!SMS-shelfwork: 028 W
!!!SMS-variant:
!!!SMS-altvar:
!!!NIFC-rismid: 1001070695
!!!URL-scan: http://bc.bdsandomierz.pl/dlibra/publication/1212/edition/1171/content
!!!ONB-nifc: Str. 21, s. 4-5
**kern	**kern
*part2	*part1
*staff2	*staff1
*I"Piano	*I"Piano
*clefF4	*clefG2
*k[]	*k[]
*C:	*C:
*M3/8	*M3/8
*>[A,A,B,B]	*>[A,A,B,B]
=1	=1
*>A	*>A
!LO:TX:a:t=P:problem:błędnie wpisany klucz F3	!LO:TX:a:i:t=Mazur
.	16qqff#/
8c 8C\	16gg\LL
.	16gg\J
8eL 8c\	8.ccc\
8eJ 8c\	.
.	16gg\Jk
=2	=2
8G\L	32ff#X\LLL
.	32gg\
.	32aa\
.	32gg\JJJ
8e 8c\	8.ee\L
8eJ 8c\	.
.	16aa\Jk
=3	=3
8G\L	16gg\LL
.	16ff\
8f 8d\	16dd\
.	16ff\
8fJ 8d\	16aa\
.	16ff\JJ
=4	=4
*	*Xtuplet
8G\	24gg\LL
.	24aa\
.	24gg\JJ
8eL 8c\	8ee\L
8eJ 8c\	8cc\J
=5	=5
.	16qqdd#X/
8A 8GG\	16ee\LL
.	16ee\J
8cL 8A\	8.aa\
8cJ 8A\	.
.	16ee\Jk
=6	=6
8E\L	32dd\LLL
.	32ee\
.	32ff\
.	32ee\JJJ
8d 8B\	8.cc\L
8dJ 8B\	.
.	16a\Jk
=7	=7
8E\L	8g#X/L
8d 8B\	8b/J
!	!LO:N:vis=8.
8dJ 8B\	16.e/LL
!	!LO:N:vis=16
.	32g#/JJk
=8	=8
!	!LO:N:vis=8
8A\	16b\LL
!	!LO:N:vis=8
.	16a\JJ
4AA/	4a\
=9:|!|:	=9:|!|:
*>B	*>B
8EL 8EE/	24e/LL
.	24g/
.	24g/JJ
8B 8G#X 8E/	8g/L
8BJ 8G#/	8e/J
=10	=10
8E\L	16a\LL
.	16b\
8c 8A\	16cc\
.	16b\
8cJ 8A\	16cc\
.	16a\JJ
!LO:LB:g=original	!LO:LB:g=original
=11	=11
8E\L	16g\LL
.	16b\
8d 8B\	16dd\
.	16ff\
8dJ 8B\	16ee\
.	16dd\JJ
=12	=12
8E\L	16dd\LL
.	16cc\
8c 8A\	16cc\
.	16b\
8cJ 8A\	16cc\
.	16a\JJ
=13	=13
8EL 8EE/	16e/LL
.	16g/JJ
8B 8G/	8g/L
8BJ 8G/	8e/J
=14	=14
8E\L	16a\LL
.	16b\
8c 8A\	16cc\
.	16b\
8cJ 8A\	16cc\
.	16a\JJ
=15	=15
8G#X\L	16g/LL
.	16b/
8d 8B\	16dd/
.	16ff/
8dJ 8B\	16ee/
.	16g/JJ
=16	=16
!LO:TX:a:t=P:problem:mixed beam	!
8A\L	8b\L
8AA/J	8a\J
!LO:TX:a:t=P:problem:brak repetycji	!LO:TX:a:t=P:problem:brak repetycji
!	!LO:N:vis=4
8ryy	8a\
==;	==;
*-	*-
!!!system-decoration: s1,s2
!!!ENC: Marta Lawrence
!!!END: 2020-11-22
!!!ENC: Berenika Jozajtis
!!!END: 2020-06-15
